internal/frontend/resources/pencil.svg

<svg xmlns="http://www.w3.org/2000/svg" xml:space="preserve" style="enable-background:new 0 0 47.5 47.5" viewBox="0 0 47.5 47.5"><defs><clipPath id="a"><path d="M0 38h38V0H0v38z"/></clipPath></defs><g clip-path="url(#a)" transform="matrix(1.25 0 0 -1.25 0 47.5)"><path d="M0 0c-.647 2.101-1.705 6.059-2.325 7.566-.501 1.216-.969 2.438-1.544 3.014-.575.575-1.553.53-2.143-.058 0 0-2.468-1.674-3.353-2.783-1.109-.882-2.785-3.357-2.785-3.357-.59-.59-.635-1.568-.06-2.143.576-.575 1.798-1.043 3.015-1.544C-7.689.075-3.73-.98-1.629-1.63-1.271-1.74.11-.359 0 0" style="fill:#d99e82;fill-opacity:1;fill-rule:nonzero;stroke:none" transform="translate(36.222 3.402)"/><path d="M0 0a2.946 2.946 0 0 0 0-4.167l-4.167-4.167a2.946 2.946 0 0 0-4.167 0l-4.167 4.167a2.946 2.946 0 0 0 0 4.167l4.167 4.167a2.946 2.946 0 0 0 4.167 0L0 0z" style="fill:#ea596e;fill-opacity:1;fill-rule:nonzero;stroke:none" transform="translate(14.643 31.692)"/><path d="m0 0-4.17-4.17-4.163-4.165-15.628 15.627 8.335 8.333L0 0z" style="fill:#ffcc4d;fill-opacity:1;fill-rule:nonzero;stroke:none" transform="translate(32.352 13.982)"/><path d="M0 0s2.709-1.489 3.441-.757c.733.733-.764 3.435-.764 3.435S.109 2.63 0 0" style="fill:#292f33;fill-opacity:1;fill-rule:nonzero;stroke:none" transform="translate(33.078 2.237)"/><path d="m0 0-8.334-8.334 5.208-5.209 8.335 8.334L0 0z" style="fill:#ccd6dd;fill-opacity:1;fill-rule:nonzero;stroke:none" transform="translate(11.518 34.817)"/><path d="m0 0-8.334-8.334-1.042 1.042 8.334 8.334L0 0z" style="fill:#99aab5;fill-opacity:1;fill-rule:nonzero;stroke:none" transform="translate(13.601 32.734)"/><path d="m0 0-8.334-8.335-1.041 1.042 8.333 8.335L0 0z" style="fill:#99aab5;fill-opacity:1;fill-rule:nonzero;stroke:none" transform="translate(15.684 30.65)"/></g></svg>

<?xml version="1.0" encoding="UTF-8" standalone="no"?><svg xmlns:svg="http://www.w3.org/2000/svg" xmlns="http://www.w3.org/2000/svg" version="1.1" viewBox="0 0 47.5 47.5" style="enable-background:new 0 0 47.5 47.5;" id="svg2" xml:space="preserve"><defs id="defs6"><clipPath id="clipPath18"><path d="M 0,38 38,38 38,0 0,0 0,38 z" id="path20"/></clipPath></defs><g transform="matrix(1.25,0,0,-1.25,0,47.5)" id="g12"><g id="g14"><g clip-path="url(#clipPath18)" id="g16"><g transform="translate(36.2217,3.4023)" id="g22"><path d="m 0,0 c -0.647,2.101 -1.705,6.059 -2.325,7.566 -0.501,1.216 -0.969,2.438 -1.544,3.014 -0.575,0.575 -1.553,0.53 -2.143,-0.058 0,0 -2.468,-1.674 -3.353,-2.783 -1.109,-0.882 -2.785,-3.357 -2.785,-3.357 -0.59,-0.59 -0.635,-1.568 -0.06,-2.143 0.576,-0.575 1.798,-1.043 3.015,-1.544 C -7.689,0.075 -3.73,-0.98 -1.629,-1.63 -1.271,-1.74 0.11,-0.359 0,0" id="path24" style="fill:#d99e82;fill-opacity:1;fill-rule:nonzero;stroke:none"/></g><g transform="translate(14.6426,31.6919)" id="g26"><path d="m 0,0 c 1.151,-1.151 1.151,-3.016 0,-4.167 l -4.167,-4.167 c -1.151,-1.151 -3.017,-1.151 -4.167,0 l -4.167,4.167 c -1.151,1.151 -1.151,3.016 0,4.167 l 4.167,4.167 c 1.15,1.151 3.016,1.151 4.167,0 L 0,0 z" id="path28" style="fill:#ea596e;fill-opacity:1;fill-rule:nonzero;stroke:none"/></g><g transform="translate(32.3525,13.9824)" id="g30"><path d="M 0,0 C 0,0 -1.046,-1.047 -4.17,-4.17 -7.292,-7.294 -8.333,-8.335 -8.333,-8.335 L -23.961,7.292 -15.626,15.625 0,0 z" id="path32" style="fill:#ffcc4d;fill-opacity:1;fill-rule:nonzero;stroke:none"/></g><g transform="translate(33.0781,2.2373)" id="g34"><path d="M 0,0 C 0,0 2.709,-1.489 3.441,-0.757 4.174,-0.024 2.677,2.678 2.677,2.678 2.677,2.678 0.109,2.63 0,0" id="path36" style="fill:#292f33;fill-opacity:1;fill-rule:nonzero;stroke:none"/></g><g transform="translate(11.5176,34.8174)" id="g38"><path d="m 0,0 -8.334,-8.334 5.208,-5.209 8.335,8.334 L 0,0 z" id="path40" style="fill:#ccd6dd;fill-opacity:1;fill-rule:nonzero;stroke:none"/></g><g transform="translate(13.6011,32.7339)" id="g42"><path d="M 0,0 -8.334,-8.334 -9.376,-7.292 -1.042,1.042 0,0 z" id="path44" style="fill:#99aab5;fill-opacity:1;fill-rule:nonzero;stroke:none"/></g><g transform="translate(15.6841,30.6504)" id="g46"><path d="M 0,0 -8.334,-8.335 -9.375,-7.293 -1.042,1.042 0,0 z" id="path48" style="fill:#99aab5;fill-opacity:1;fill-rule:nonzero;stroke:none"/></g></g></g></g></svg>
